icons/svg/shields/h_recycling_shield.svg

<?xml version="1.0" encoding="UTF-8" standalone="no"?>
<!-- Created with Inkscape (http://www.inkscape.org/) -->

<svg
   xmlns:dc="http://purl.org/dc/elements/1.1/"
   xmlns:cc="http://creativecommons.org/ns#"
   xmlns:rdf="http://www.w3.org/1999/02/22-rdf-syntax-ns#"
   xmlns:svg="http://www.w3.org/2000/svg"
   xmlns="http://www.w3.org/2000/svg"
   xmlns:sodipodi="http://sodipodi.sourceforge.net/DTD/sodipodi-0.dtd"
   xmlns:inkscape="http://www.inkscape.org/namespaces/inkscape"
   version="1.0"
   width="16"
   height="16"
   id="svg2"
   sodipodi:version="0.32"
   inkscape:version="0.48.4 r9939"
   sodipodi:docname="recycling.svg"
   inkscape:output_extension="org.inkscape.output.svg.inkscape">
  <metadata
     id="metadata2975">
    <rdf:RDF>
      <cc:Work
         rdf:about="">
        <dc:format>image/svg+xml</dc:format>
        <dc:type
           rdf:resource="http://purl.org/dc/dcmitype/StillImage" />
        <cc:license
           rdf:resource="http://web.resource.org/cc/PublicDomain" />
        <dc:language>en</dc:language>
        <dc:title></dc:title>
      </cc:Work>
    </rdf:RDF>
  </metadata>
  <sodipodi:namedview
     inkscape:window-height="995"
     inkscape:window-width="1280"
     inkscape:pageshadow="2"
     inkscape:pageopacity="0.0"
     guidetolerance="10.0"
     gridtolerance="10.0"
     objecttolerance="10.0"
     borderopacity="1.0"
     bordercolor="#666666"
     pagecolor="#ffffff"
     id="base"
     inkscape:zoom="29.493668"
     inkscape:cx="4.7501375"
     inkscape:cy="8.5422753"
     inkscape:window-x="0"
     inkscape:window-y="0"
     inkscape:current-layer="svg2"
     showgrid="false"
     inkscape:window-maximized="1" />
  <defs
     id="defs4">
    <inkscape:perspective
       sodipodi:type="inkscape:persp3d"
       inkscape:vp_x="0 : 290 : 1"
       inkscape:vp_y="0 : 1000 : 0"
       inkscape:vp_z="580 : 290 : 1"
       inkscape:persp3d-origin="290 : 193.33333 : 1"
       id="perspective2441" />
    <inkscape:perspective
       id="perspective3452"
       inkscape:persp3d-origin="30 : 20 : 1"
       inkscape:vp_z="60 : 30 : 1"
       inkscape:vp_y="0 : 1000 : 0"
       inkscape:vp_x="0 : 30 : 1"
       sodipodi:type="inkscape:persp3d" />
    <symbol
       viewBox="244.5 110 489 219.9"
       id="symbol-university">
      <path
         id="path4460"
         d="m 79,43 57,119 c 0,0 21,-96 104,-96 83,0 124,106 124,106 L 407,39 489,22 0,17 79,43 z"
         inkscape:connector-curvature="0" />
      <path
         id="path4462"
         d="M 94,176 73,215"
         inkscape:connector-curvature="0"
         style="fill:none;stroke:#000000;stroke-width:20" />
      <path
         id="path4464"
         d="M 300,19 C 300,29.5 277.4,38 249.5,38 221.6,38 199,29.5 199,19 199,8.5 221.6,0 249.5,0 277.4,0 300,8.5 300,19 z"
         inkscape:connector-curvature="0" />
      <path
         id="path4466"
         d="M 112,216 96,178 64,88 C 64,88 55,80 60,53 65,26 76,29 76,29"
         ill="none"
         inkscape:connector-curvature="0"
         style="stroke:#000000;stroke-width:20" />
    </symbol>
    <inkscape:perspective
       id="perspective4471"
       inkscape:persp3d-origin="372.04724 : 350.78739 : 1"
       inkscape:vp_z="744.09448 : 526.18109 : 1"
       inkscape:vp_y="0 : 1000 : 0"
       inkscape:vp_x="0 : 526.18109 : 1"
       sodipodi:type="inkscape:persp3d" />
    <inkscape:perspective
       id="perspective4668"
       inkscape:persp3d-origin="6 : 4 : 1"
       inkscape:vp_z="12 : 6 : 1"
       inkscape:vp_y="0 : 1000 : 0"
       inkscape:vp_x="0 : 6 : 1"
       sodipodi:type="inkscape:persp3d" />
  </defs>
  <path
     sodipodi:type="inkscape:offset"
     inkscape:radius="0.84763956"
     inkscape:original="M 7.40625 1.21875 C 7.517067 1.3416093 7.6134823 1.4705392 7.6875 1.59375 L 9.34375 4.5 L 9.09375 4.6875 L 7.96875 5.3125 L 11.40625 5.3125 L 13.15625 2.34375 L 11.75 3.15625 L 10.875 1.65625 C 10.714948 1.3733756 10.457089 1.2187625 10.125 1.21875 L 7.40625 1.21875 z M 6.28125 1.375 C 5.8871554 1.3750122 5.6030993 1.5305143 5.40625 1.875 L 3.6875 4.84375 C 4.3396734 5.2254478 5.1266769 5.6894252 6.0625 6.21875 C 6.6162434 5.2709197 7.2348344 4.214035 7.875 3.09375 L 7.1875 1.875 C 6.9906357 1.5305143 6.67533 1.3750122 6.28125 1.375 z M 13.25 5.8125 C 13.18837 5.849324 12.401746 6.3133016 10.875 7.1875 C 11.638367 8.5046363 12.244185 9.5491243 12.6875 10.3125 L 14.0625 10.3125 C 14.468969 10.312503 14.771878 10.126127 14.96875 9.78125 C 15.153192 9.448778 15.134343 9.1257519 14.9375 8.78125 L 13.25 5.8125 z M 0.78125 6.75 L 2.1875 7.5625 L 1.3125 9.0625 C 1.2384884 9.1981244 1.1874978 9.321113 1.1875 9.46875 C 1.1874978 9.616396 1.2384885 9.770634 1.3125 9.90625 L 2.6875 12.28125 C 2.7491071 12.108814 2.782135 11.966973 2.84375 11.84375 L 4.5625 8.90625 L 5.9375 9.71875 L 4.21875 6.75 L 0.78125 6.75 z M 10.71875 9.28125 L 9 12.25 L 10.71875 15.25 L 10.71875 13.625 L 12.4375 13.625 C 12.769962 13.625 13.015424 13.502013 13.1875 13.21875 L 14.53125 10.8125 C 14.346776 10.86172 14.216957 10.90625 14.09375 10.90625 L 10.71875 10.875 L 10.71875 10.53125 L 10.71875 9.28125 z M 4.0625 10.90625 C 4.0377 10.95547 3.9725345 11.135387 3.8125 11.40625 L 3.375 12.125 C 3.276192 12.28504 3.2187459 12.471792 3.21875 12.65625 C 3.2187459 12.939512 3.3280034 13.178145 3.53125 13.375 C 3.7344877 13.571856 3.9671085 13.65625 4.25 13.65625 L 7.65625 13.65625 L 7.65625 10.90625 L 4.0625 10.90625 z "
     style="font-size:40px;font-style:normal;font-variant:normal;font-weight:normal;font-stretch:normal;text-align:start;line-height:125%;writing-mode:lr-tb;text-anchor:start;fill:#fefefe;fill-opacity:0.69803923;stroke:none;font-family:NPSPICT3;-inkscape-font-specification:NPSPICT3"
     id="path3781"
     d="M 7.25,0.375 A 0.84772432,0.84772432 0 0 0 6.78125,0.65625 c -0.1660831,-0.0461707 -0.3361364,-0.12499493 -0.5,-0.125 -0.6033512,1.868e-5 -1.2687112,0.37244911 -1.59375,0.90625 -0.00738,0.012126 -0.024218,0.018944 -0.03125,0.03125 l -1.6875,2.9375 A 0.84772432,0.84772432 0 0 0 3.25,5.5625 c 0.1600808,0.093691 0.4163316,0.2398774 0.59375,0.34375 l -3.0625,0 a 0.84772432,0.84772432 0 0 0 -0.4375,1.5625 L 1.03125,7.875 0.59375,8.625 A 0.84772432,0.84772432 0 0 0 0.5625,8.65625 c -0.0988113,0.1810692 -0.21875511,0.4696852 -0.21875,0.8125 -5.11e-6,0.3428141 0.0937007,0.614614 0.21875,0.84375 a 0.84772432,0.84772432 0 0 0 0.03125,0.03125 l 1.375,2.375 A 0.84772432,0.84772432 0 0 0 2.5625,13.125 c 0.095529,0.308941 0.1551049,0.63077 0.375,0.84375 C 3.2859498,14.306258 3.7985263,14.5 4.25,14.5 l 3.40625,0 A 0.84772432,0.84772432 0 0 0 8.5,13.65625 l 0,-0.5625 1.46875,2.5625 A 0.84772432,0.84772432 0 0 0 11.5625,15.25 l 0,-0.78125 0.875,0 c 0.541506,0 1.167492,-0.316584 1.46875,-0.8125 A 0.84772432,0.84772432 0 0 0 13.9375,13.625 l 1.34375,-2.40625 a 0.84772432,0.84772432 0 0 0 0.0625,-0.65625 c 0.126828,-0.121679 0.290436,-0.226862 0.375,-0.375 C 16.028061,9.629941 15.986012,8.8974364 15.6875,8.375 L 14,5.40625 a 0.84772432,0.84772432 0 0 0 -1.1875,-0.3125 c -0.0052,0.00313 -0.403438,0.2116333 -0.46875,0.25 L 13.875,2.78125 A 0.84772432,0.84772432 0 0 0 12.71875,1.625 L 12.0625,2 11.625,1.25 C 11.617825,1.2373183 11.601318,1.2312448 11.59375,1.21875 11.298583,0.73145151 10.705288,0.37502184 10.125,0.375 l -2.71875,0 a 0.84772432,0.84772432 0 0 0 -0.15625,0 z m 0.03125,5.4375 a 0.84772432,0.84772432 0 0 0 0.6875,0.34375 l 3,0 c -0.258575,0.1490771 -0.176513,0.096025 -0.5,0.28125 a 0.84772432,0.84772432 0 0 0 -0.3125,1.1875 c 0.19823,0.3420319 0.291847,0.5073739 0.46875,0.8125 A 0.84772432,0.84772432 0 0 0 10,8.84375 l -1.5,2.59375 0,-0.53125 A 0.84772432,0.84772432 0 0 0 7.65625,10.0625 l -0.9375,0 A 0.84772432,0.84772432 0 0 0 6.65625,9.28125 l -1.5,-2.625 c 0.1860535,0.1066952 0.3005198,0.1996691 0.5,0.3125 a 0.84772432,0.84772432 0 0 0 1.125,-0.3125 c 0.1485059,-0.2541942 0.3427441,-0.5743106 0.5,-0.84375 z" />
</svg>

<?xml version="1.0" encoding="UTF-8" standalone="no"?>
<!-- Created with Inkscape (http://www.inkscape.org/) -->

<svg
   xmlns:dc="http://purl.org/dc/elements/1.1/"
   xmlns:cc="http://creativecommons.org/ns#"
   xmlns:rdf="http://www.w3.org/1999/02/22-rdf-syntax-ns#"
   xmlns:svg="http://www.w3.org/2000/svg"
   xmlns="http://www.w3.org/2000/svg"
   xmlns:sodipodi="http://sodipodi.sourceforge.net/DTD/sodipodi-0.dtd"
   xmlns:inkscape="http://www.inkscape.org/namespaces/inkscape"
   version="1.0"
   width="16"
   height="16"
   id="svg2"
   sodipodi:version="0.32"
   inkscape:version="0.91 r13725"
   sodipodi:docname="h_recycling_shield.svg"
   inkscape:output_extension="org.inkscape.output.svg.inkscape">
  <metadata
     id="metadata2975">
    <rdf:RDF>
      <cc:Work
         rdf:about="">
        <dc:format>image/svg+xml</dc:format>
        <dc:type
           rdf:resource="http://purl.org/dc/dcmitype/StillImage" />
        <cc:license
           rdf:resource="http://web.resource.org/cc/PublicDomain" />
        <dc:language>en</dc:language>
        <dc:title />
      </cc:Work>
    </rdf:RDF>
  </metadata>
  <sodipodi:namedview
     inkscape:window-height="1006"
     inkscape:window-width="1920"
     inkscape:pageshadow="2"
     inkscape:pageopacity="0.0"
     guidetolerance="10.0"
     gridtolerance="10.0"
     objecttolerance="10.0"
     borderopacity="1.0"
     bordercolor="#666666"
     pagecolor="#ffffff"
     id="base"
     inkscape:zoom="29.493668"
     inkscape:cx="4.8179487"
     inkscape:cy="8.1354083"
     inkscape:window-x="1920"
     inkscape:window-y="0"
     inkscape:current-layer="svg2"
     showgrid="false"
     inkscape:window-maximized="1" />
  <defs
     id="defs4">
    <inkscape:perspective
       sodipodi:type="inkscape:persp3d"
       inkscape:vp_x="0 : 290 : 1"
       inkscape:vp_y="0 : 1000 : 0"
       inkscape:vp_z="580 : 290 : 1"
       inkscape:persp3d-origin="290 : 193.33333 : 1"
       id="perspective2441" />
    <inkscape:perspective
       id="perspective3452"
       inkscape:persp3d-origin="30 : 20 : 1"
       inkscape:vp_z="60 : 30 : 1"
       inkscape:vp_y="0 : 1000 : 0"
       inkscape:vp_x="0 : 30 : 1"
       sodipodi:type="inkscape:persp3d" />
    <symbol
       viewBox="244.5 110 489 219.9"
       id="symbol-university">
      <path
         id="path4460"
         d="m 79,43 57,119 c 0,0 21,-96 104,-96 83,0 124,106 124,106 L 407,39 489,22 0,17 79,43 z"
         inkscape:connector-curvature="0" />
      <path
         id="path4462"
         d="M 94,176 73,215"
         inkscape:connector-curvature="0"
         style="fill:none;stroke:#000000;stroke-width:20" />
      <path
         id="path4464"
         d="M 300,19 C 300,29.5 277.4,38 249.5,38 221.6,38 199,29.5 199,19 199,8.5 221.6,0 249.5,0 277.4,0 300,8.5 300,19 z"
         inkscape:connector-curvature="0" />
      <path
         id="path4466"
         d="M 112,216 96,178 64,88 C 64,88 55,80 60,53 65,26 76,29 76,29"
         ill="none"
         inkscape:connector-curvature="0"
         style="stroke:#000000;stroke-width:20" />
    </symbol>
    <inkscape:perspective
       id="perspective4471"
       inkscape:persp3d-origin="372.04724 : 350.78739 : 1"
       inkscape:vp_z="744.09448 : 526.18109 : 1"
       inkscape:vp_y="0 : 1000 : 0"
       inkscape:vp_x="0 : 526.18109 : 1"
       sodipodi:type="inkscape:persp3d" />
    <inkscape:perspective
       id="perspective4668"
       inkscape:persp3d-origin="6 : 4 : 1"
       inkscape:vp_z="12 : 6 : 1"
       inkscape:vp_y="0 : 1000 : 0"
       inkscape:vp_x="0 : 6 : 1"
       sodipodi:type="inkscape:persp3d" />
  </defs>
  <path
     sodipodi:type="inkscape:offset"
     inkscape:radius="0.84763956"
     inkscape:original="M 7.40625 1.21875 C 7.517067 1.3416093 7.6134823 1.4705392 7.6875 1.59375 L 9.34375 4.5 L 9.09375 4.6875 L 7.96875 5.3125 L 11.40625 5.3125 L 13.15625 2.34375 L 11.75 3.15625 L 10.875 1.65625 C 10.714948 1.3733756 10.457089 1.2187625 10.125 1.21875 L 7.40625 1.21875 z M 6.28125 1.375 C 5.8871554 1.3750122 5.6030993 1.5305143 5.40625 1.875 L 3.6875 4.84375 C 4.3396734 5.2254478 5.1266769 5.6894252 6.0625 6.21875 C 6.6162434 5.2709197 7.2348344 4.214035 7.875 3.09375 L 7.1875 1.875 C 6.9906357 1.5305143 6.67533 1.3750122 6.28125 1.375 z M 13.25 5.8125 C 13.18837 5.849324 12.401746 6.3133016 10.875 7.1875 C 11.638367 8.5046363 12.244185 9.5491243 12.6875 10.3125 L 14.0625 10.3125 C 14.468969 10.312503 14.771878 10.126127 14.96875 9.78125 C 15.153192 9.448778 15.134343 9.1257519 14.9375 8.78125 L 13.25 5.8125 z M 0.78125 6.75 L 2.1875 7.5625 L 1.3125 9.0625 C 1.2384884 9.1981244 1.1874978 9.321113 1.1875 9.46875 C 1.1874978 9.616396 1.2384885 9.770634 1.3125 9.90625 L 2.6875 12.28125 C 2.7491071 12.108814 2.782135 11.966973 2.84375 11.84375 L 4.5625 8.90625 L 5.9375 9.71875 L 4.21875 6.75 L 0.78125 6.75 z M 10.71875 9.28125 L 9 12.25 L 10.71875 15.25 L 10.71875 13.625 L 12.4375 13.625 C 12.769962 13.625 13.015424 13.502013 13.1875 13.21875 L 14.53125 10.8125 C 14.346776 10.86172 14.216957 10.90625 14.09375 10.90625 L 10.71875 10.875 L 10.71875 10.53125 L 10.71875 9.28125 z M 4.0625 10.90625 C 4.0377 10.95547 3.9725345 11.135387 3.8125 11.40625 L 3.375 12.125 C 3.276192 12.28504 3.2187459 12.471792 3.21875 12.65625 C 3.2187459 12.939512 3.3280034 13.178145 3.53125 13.375 C 3.7344877 13.571856 3.9671085 13.65625 4.25 13.65625 L 7.65625 13.65625 L 7.65625 10.90625 L 4.0625 10.90625 z "
     style="font-style:normal;font-variant:normal;font-weight:normal;font-stretch:normal;font-size:40px;line-height:125%;font-family:NPSPICT3;-inkscape-font-specification:NPSPICT3;text-align:start;writing-mode:lr-tb;text-anchor:start;opacity:0.80400002;fill:#ebe7e4;fill-opacity:1;stroke:none"
     id="path3781"
     d="M 7.40625,0.37109375 A 0.84772432,0.84772432 0 0 0 6.7734375,0.65625 C 6.6072674,0.61003012 6.4452026,0.52734883 6.28125,0.52734375 5.6641932,0.52736285 4.9865305,0.90101389 4.6699219,1.4550781 L 2.953125,4.4199219 a 0.84772432,0.84772432 0 0 0 0.3066406,1.15625 c 0.1534422,0.089805 0.3931336,0.2270002 0.5625,0.3261719 l -3.0410156,0 A 0.84772432,0.84772432 0 0 0 0.35742188,7.484375 L 1.0253906,7.8710938 0.58007812,8.6347656 A 0.84772432,0.84772432 0 0 0 0.56835938,8.65625 c -0.0988113,0.1810692 -0.22852074,0.4696852 -0.22851563,0.8125 -5.11e-6,0.3428141 0.10346636,0.614614 0.22851563,0.84375 a 0.84772432,0.84772432 0 0 0 0.009766,0.01758 l 1.375,2.375 a 0.84772432,0.84772432 0 0 0 0.6171875,0.414063 c 0.095063,0.311617 0.1495673,0.650674 0.3710937,0.865234 0.3484499,0.337508 0.8571201,0.519531 1.3085938,0.519531 l 3.40625,0 A 0.84772432,0.84772432 0 0 0 8.5039062,13.65625 l 0,-0.564453 1.4785157,2.580078 A 0.84772432,0.84772432 0 0 0 11.566406,15.25 l 0,-0.777344 0.871094,0 c 0.541506,0 1.173351,-0.318537 1.474609,-0.814453 a 0.84772432,0.84772432 0 0 0 0.01563,-0.02539 l 1.34375,-2.40625 a 0.84772432,0.84772432 0 0 0 0.07031,-0.664062 c 0.124522,-0.120386 0.279919,-0.215295 0.363281,-0.361328 a 0.84772432,0.84772432 0 0 0 0.0059,-0.0078 c 0.308999,-0.5569969 0.260596,-1.3077066 -0.03711,-1.8300778 l 0,-0.00195 -1.6875,-2.9667969 A 0.84772432,0.84772432 0 0 0 12.814453,5.0839844 c -0.005,0.00296 -0.380667,0.2193605 -0.439453,0.2539062 L 13.886719,2.7734375 A 0.84772432,0.84772432 0 0 0 12.732422,1.609375 L 12.056641,2 11.613281,1.2382812 C 11.326266,0.73101263 10.720167,0.37111615 10.125,0.37109375 l -2.71875,0 z m -0.125,5.43750005 a 0.84772432,0.84772432 0 0 0 0.6875,0.3515624 l 2.986328,0 C 10.696224,6.309396 10.77708,6.2656785 10.453125,6.4511719 A 0.84772432,0.84772432 0 0 0 10.142578,7.6132812 C 10.34455,7.9617694 10.443217,8.12928 10.623047,8.4394531 A 0.84772432,0.84772432 0 0 0 9.984375,8.8574219 l -1.4804688,2.5566401 0,-0.507812 A 0.84772432,0.84772432 0 0 0 7.65625,10.058594 l -0.9414062,0 A 0.84772432,0.84772432 0 0 0 6.671875,9.2949219 L 5.1542969,6.6738281 C 5.3354257,6.7776624 5.4507266,6.8474105 5.6445312,6.9570312 A 0.84772432,0.84772432 0 0 0 6.7949219,6.6464844 C 6.9429957,6.3930296 7.1244745,6.0772077 7.28125,5.8085938 Z"
     transform="matrix(0.857,0,0,0.857,1.1335833,1.1776413)" />
</svg>
